public/assets/Sponsors/past/airmeet.svg

<?xml version="1.0" encoding="UTF-8"?> <svg xmlns="http://www.w3.org/2000/svg" width="802" height="200" viewBox="0 0 802 200" fill="none"><path d="M64.0118 27.2495C79.2051 -0.0728993 117.903 -0.0729141 133.096 27.2495C133.096 27.2495 134.517 29.5789 135.255 31.1596C141.564 44.6708 135.194 53.8972 128.453 68.7422C125.008 76.327 120.253 83.3704 115.029 90.5086C113.651 92.3915 112.229 94.2959 110.791 96.2208C106.877 101.462 102.85 106.853 99.3044 112.369C89.3963 127.784 82.4899 145.267 88.445 168.562C91.3553 179.946 96.2986 187.827 101.758 193.242H39.7419C9.34982 193.242 -9.76181 159.918 5.19971 133.012L64.0118 27.2495Z" fill="#6A4CFF"></path><path d="M175.453 188.877C170.123 191.65 164.015 193.245 157.366 193.245H125.146C121.891 193.245 118.594 192.801 115.761 191.198C109.84 187.847 102.469 180.936 98.7078 166.223C93.6348 146.379 99.2746 131.635 108.329 117.549C111.672 112.349 115.381 107.382 119.222 102.239C120.704 100.255 122.206 98.244 123.714 96.1837C129.034 88.913 134.282 81.2066 138.155 72.6777C141.984 64.2461 144.134 56.2632 145.199 49.0192L191.907 133.016C203.128 153.195 195.184 176.984 177.689 187.618C176.96 188.061 176.215 188.481 175.453 188.877Z" fill="#4CC4FF"></path><path d="M328.187 154H350.362L310.448 49.1885H286.795L246.585 154H268.168L276.89 130.052H319.465L328.187 154ZM298.178 71.8065L312.665 111.425H283.69L298.178 71.8065ZM381.95 154V81.2676H362.289V154H381.95ZM359.923 57.467C359.923 63.9715 365.393 69.4412 372.045 69.4412C378.846 69.4412 384.167 63.9715 384.167 57.467C384.167 50.6668 378.846 45.1971 372.045 45.1971C365.393 45.1971 359.923 50.6668 359.923 57.467ZM447.349 80.972C445.87 80.8241 444.392 80.6763 442.766 80.6763C436.557 80.6763 426.505 82.4503 422.07 92.0592V81.2676H403V154H422.661V120.738C422.661 105.068 431.383 100.19 441.435 100.19C443.209 100.19 445.131 100.338 447.349 100.781V80.972ZM480.84 154V111.425C480.84 103.442 485.866 97.0854 494.441 97.0854C503.31 97.0854 507.302 102.999 507.302 110.834V154H526.815V111.425C526.815 103.59 531.842 97.0854 540.268 97.0854C549.286 97.0854 553.129 102.999 553.129 110.834V154H572.199V106.842C572.199 87.3286 559.338 79.198 545.885 79.198C536.276 79.198 528.589 82.4503 522.824 91.3201C519.128 83.4851 511.145 79.198 501.241 79.198C493.258 79.198 483.945 83.0416 479.953 90.1374V81.2676H461.179V154H480.84ZM606.458 109.355C606.901 102.703 612.519 95.0158 622.719 95.0158C633.954 95.0158 638.685 102.112 638.98 109.355H606.458ZM640.902 128.278C638.537 134.782 633.511 139.365 624.345 139.365C614.588 139.365 606.458 132.417 606.014 122.808H658.05C658.05 122.512 658.346 119.556 658.346 116.747C658.346 93.3897 644.893 79.0502 622.423 79.0502C603.797 79.0502 586.648 94.1288 586.648 117.338C586.648 141.878 604.24 156.217 624.197 156.217C642.085 156.217 653.615 145.722 657.311 133.156L640.902 128.278ZM688.168 109.355C688.612 102.703 694.229 95.0158 704.43 95.0158C715.665 95.0158 720.395 102.112 720.691 109.355H688.168ZM722.613 128.278C720.248 134.782 715.221 139.365 706.056 139.365C696.299 139.365 688.168 132.417 687.725 122.808H739.761C739.761 122.512 740.057 119.556 740.057 116.747C740.057 93.3897 726.604 79.0502 704.134 79.0502C685.507 79.0502 668.359 94.1288 668.359 117.338C668.359 141.878 685.951 156.217 705.908 156.217C723.795 156.217 735.326 145.722 739.022 133.156L722.613 128.278ZM779.784 59.5366H762.044V69.7369C762.044 76.2414 758.496 81.2676 750.809 81.2676H747.113V98.7116H760.27V132.565C760.27 146.608 769.14 155.035 783.332 155.035C789.097 155.035 792.645 154 794.419 153.261V137C793.384 137.295 790.723 137.591 788.358 137.591C782.74 137.591 779.784 135.521 779.784 129.165V98.7116H794.419V81.2676H779.784V59.5366Z" fill="#FCFCFC"></path></svg>

<svg xmlns="http://www.w3.org/2000/svg" width="802" height="200" fill="none"><path d="M64.012 27.25c15.193-27.323 53.891-27.323 69.084 0 0 0 1.421 2.329 2.159 3.91 6.309 13.51-.061 22.737-6.802 37.582-3.445 7.585-8.2 14.628-13.424 21.767a728.056 728.056 0 0 1-4.238 5.712c-3.914 5.241-7.941 10.632-11.487 16.148-9.908 15.415-16.814 32.898-10.859 56.193 2.91 11.384 7.854 19.265 13.313 24.68H39.742c-30.392 0-49.504-33.324-34.542-60.23L64.012 27.249Z" fill="#6A4CFF"/><path d="M175.453 188.877c-5.33 2.773-11.438 4.368-18.087 4.368h-32.22c-3.255 0-6.552-.444-9.385-2.047-5.921-3.351-13.292-10.262-17.053-24.975-5.073-19.844.567-34.588 9.621-48.674 3.343-5.2 7.052-10.167 10.893-15.31a770.924 770.924 0 0 0 4.492-6.055c5.32-7.271 10.568-14.977 14.441-23.506 3.829-8.432 5.979-16.415 7.044-23.659l46.708 83.997c11.221 20.179 3.277 43.968-14.218 54.602a38.42 38.42 0 0 1-2.236 1.259Z" fill="#4CC4FF"/><path d="M328.187 154h22.175L310.448 49.189h-23.653L246.585 154h21.583l8.722-23.948h42.575L328.187 154Zm-30.009-82.194 14.487 39.619H283.69l14.488-39.618ZM381.95 154V81.268h-19.661V154h19.661Zm-22.027-96.533c0 6.505 5.47 11.974 12.122 11.974 6.801 0 12.122-5.47 12.122-11.974 0-6.8-5.321-12.27-12.122-12.27-6.652 0-12.122 5.47-12.122 12.27Zm87.426 23.505c-1.479-.148-2.957-.296-4.583-.296-6.209 0-16.261 1.774-20.696 11.383V81.268H403V154h19.661v-33.262c0-15.67 8.722-20.548 18.774-20.548 1.774 0 3.696.148 5.914.591V80.972ZM480.84 154v-42.575c0-7.983 5.026-14.34 13.601-14.34 8.869 0 12.861 5.914 12.861 13.749V154h19.513v-42.575c0-7.835 5.027-14.34 13.453-14.34 9.018 0 12.861 5.914 12.861 13.749V154h19.07v-47.158c0-19.513-12.861-27.644-26.314-27.644-9.609 0-17.296 3.252-23.061 12.122-3.696-7.835-11.679-12.122-21.583-12.122-7.983 0-17.296 3.844-21.288 10.94v-8.87h-18.774V154h19.661Zm125.618-44.645c.443-6.652 6.061-14.34 16.261-14.34 11.235 0 15.966 7.097 16.261 14.34h-32.522Zm34.444 18.923c-2.365 6.504-7.391 11.087-16.557 11.087-9.757 0-17.887-6.948-18.331-16.557h52.036c0-.296.296-3.252.296-6.061 0-23.357-13.453-37.697-35.923-37.697-18.626 0-35.775 15.079-35.775 38.288 0 24.54 17.592 38.879 37.549 38.879 17.888 0 29.418-10.495 33.114-23.061l-16.409-4.878Zm47.266-18.923c.444-6.652 6.061-14.34 16.262-14.34 11.235 0 15.965 7.097 16.261 14.34h-32.523Zm34.445 18.923c-2.365 6.504-7.392 11.087-16.557 11.087-9.757 0-17.888-6.948-18.331-16.557h52.036c0-.296.296-3.252.296-6.061 0-23.357-13.453-37.697-35.923-37.697-18.627 0-35.775 15.079-35.775 38.288 0 24.54 17.592 38.879 37.549 38.879 17.887 0 29.418-10.495 33.114-23.061l-16.409-4.878Zm57.171-68.741h-17.74v10.2c0 6.504-3.548 11.53-11.235 11.53h-3.696v17.445h13.157v33.853c0 14.043 8.87 22.47 23.062 22.47 5.765 0 9.313-1.035 11.087-1.774V137c-1.035.295-3.696.591-6.061.591-5.618 0-8.574-2.07-8.574-8.426V98.712h14.635V81.268h-14.635V59.537Z" fill="#FCFCFC"/></svg>
